X:1
T:Blessèd King of Judah
T:Blessèd King of Judah
T:William Howard Doane
T:Frances Jane (Fanny) Croby, 1886
T:Public Domain Courtesy of the Cyber Hymnal™
T:Public Domain Courtesy of the Cyber Hymnal™
C:William Howard Doane
Z:Public Domain
Z:Courtesy of the Cyber Hymnal™
%%score ( 1 2 ) ( 3 4 )
L:1/8
Q:1/4=95
M:4/4
K:Bb
V:1 treble 
V:2 treble 
V:3 bass 
V:4 bass 
V:1
 [DB]2 [Fd]>[Ec] [DB]2 [FB]>[FB] | [FA][EG][GB][EG] [DF]2 [B,D]2 | [DF]2 [FB]>[Fc] [Fd]2 [Fd]2 | %3
w: 1.~O there is none like the|bless- èd King of Ju- dah;|Hailed by the world His|
w: 2.~Hark, ’tis the voice of the|bless- èd King of Ju- dah,|Sound- ing a- far the|
w: 3.~We will re- joice in the|bless- èd King of Ju- dah,|We will o- bey His|
 [Fe]2 [Fd]2 [Fc]4 | [DB]2 [Fd]>[Ec] [DB]2 [FB]>[FB] | [FA][EG][GB][EG] [DF]2 [FB]2 | %6
w: reign shall be;|Light of the soul and of|ag- es ev- er- last- ing,|
w: sweet com- mand;|“Look and be saved,” are its|words of lov- ing kind- ness;|
w: voice of love,|Call- ing a- way to the|fields of end- less plea- sure,|
 [Fd]2 [Gd][Gd] [Ge]2 [Gc]2 | [FB]2 [EA]2 [DB]4 | [Fc]2 [Fc]>[Fc] [Fc]2 [F=B][Fc] | %9
w: O there is none so|great as He;|They who a- bide in His|
w: Firm as the hills this|truth shall stand;|Look and be saved; O the|
w: Call- ing to rest and|life a- bove;|When, on the banks of the|
 [Fd][Fc][FA]F [FA]2 [Fc]2 | [GB]2 [GB]>[GB] [GB]2 [^FA][GB] | [Ac][GB][FA][=EG] [GB]2 [FA]2 | %12
w: pure and ho- ly dwell- ing,|Crowned with de- light all His|won- ders now are tell- ing;|
w: mil- lions that be- fore Him|Fall at His feet while they|wor- ship and a- dore Him,|
w: clear and crys- tal riv- er,|Those we have loved we shall|meet no more to se- ver,|
 [Ac]2 [Ac]>[Ac] [Ac]2 [^G=B][Ac] | [Bd][df][c=e][Bd] [df]2 [Bd]2 | [Fc]2 [Fc]>[Fc] [Fc]2 [FA]F | %15
w: Harp an- swers harp, and the|song of rap- ture swell- ing,|Hal- low the name of the|
w: Tell of His love while they|shout a- loud the sto- ry.|Saved and re- deemed by the|
w: There we shall sing with the|pure in heart for- ev- er,|Praise to the name of the|
 [FA]2 [=EG]2 F4 ||"^Refrain" [DB]2 [Fd]>[Ec] [DB]2 [FB]>[FB] | [FA][EG][GB][EG] [DF]2 [DB]2 | %18
w: Lord our king.|||
w: Lord our king.|O there is none like the|bless- èd King of Ju- dah;|
w: Lord our king.|||
 [Fd]2 [Fd]>[Fd] [Ge]2 [Fd]2 | [Fc]2 [=Ec]2 [Fc]4 | [Fe]3 [Fd] [Fc][Fc][Fc][Fc] | %21
w: |||
w: Hailed by the world His|reign shall be;|Light and hope of ev- er-|
w: |||
 [Fd]3 [Ec] [DB]2 [FA]2 | [EG]2 [FB]>[FB] [Ee]2 ([Fd][Gc]) | [FB]2 [EA]2 [DB]4 |] %24
w: |||
w: last- ing ag- es,|O there is none so *|great as He.|
w: |||
V:2
 x8 | x8 | x8 | x8 | x8 | x8 | x8 | x8 | x8 | x3 F x4 | x8 | x8 | x8 | x8 | x7 F | x4 F4 || x8 | %17
 x8 | x8 | x8 | x8 | x8 | x8 | x8 |] %24
V:3
 [B,,B,]2 [B,,B,]>[B,,B,] [B,,B,]2 [D,B,]>[D,B,] | [E,B,][E,B,][E,B,][E,B,] [B,,B,]2 [B,,F,]2 | %2
 [B,,B,]2 [D,B,]>[F,A,] B,2 B,2 | [F,C]2 [F,B,]2 [F,A,]4 | %4
 [B,,B,]2 [B,,B,]>[B,,B,] [B,,B,]2 [D,B,]>[D,B,] | [E,B,][E,B,][E,B,][E,B,] [B,,B,]2 [B,,D]2 | %6
 [B,,B,]2 [G,=B,][G,B,] [C,C]2 [C,E]2 | [F,D]2 [F,C]2 [B,,B,]4 | %8
 [F,A,]2 [F,A,]>[F,A,] [F,A,]2 [F,^G,][F,A,] | [F,B,][F,A,][F,C][F,A,] [F,C]2 [F,A,]2 | %10
 [C,C]2 [C,C]>[C,C] [C,C]2 [C,C][C,C] | [C,C][C,C][C,C][C,C] [F,C]2 [F,C]2 | %12
 [F,F]2 [F,F]>[F,F] [F,F]2 [F,F][F,C] | [B,,B,][B,,B,][B,,B,][B,,B,] [B,,B,]2 [B,,B,]2 | %14
 [C,A,]2 [C,A,]>[C,A,] [C,A,]2 [C,C][C,A,] | [C,C]2 [C,B,]2 (z E,D,C,) || %16
 [B,,B,]2 [B,,B,]>[B,,B,] [B,,B,]2 [D,B,]>[D,B,] | [E,B,][E,B,][E,B,][E,B,] [B,,B,]2 [B,,F,]2 | %18
 [B,,B,]2 [B,,B,]>[B,,B,] [B,,B,]2 [B,,B,]2 | [C,A,]2 [C,G,]2 [F,A,]4 | %20
 [F,C]3 [F,B,] [F,A,][F,A,][F,A,][F,A,] | B,3 [F,A,] [B,,B,]2 [D,B,]2 | %22
 [E,B,]2 [D,B,]>[D,B,] [G,B,]2 ([F,B,][E,E]) | [F,D]2 [F,C]2 [B,,B,]4 |] %24
V:4
 x8 | x8 | x4 B,2 B,2 | x8 | x8 | x8 | x8 | x8 | x8 | x8 | x8 | x8 | x8 | x8 | x8 | x4 [F,A,]4 || %16
 x8 | x8 | x8 | x8 | x8 | B,3 x5 | x8 | x8 |] %24

